!!!ONB: MCCC : IJH0409_01 : Extracted Monophonic Melody
!!!COM: Haydn, Joseph
!!!OPR: String Quartet in B-flat major
!!!OMV: 1
!!!SCT: Hob.III:40 ; Op.33 No.4
!!!ODT: 1781///
**kern
*thru
*k[b-e-]
*B-:
*clefG
*M4/4
2ff[
=1
8.ff]
32gg
32aa
16bb-
16ff
16ee-
16dd
8cc
16b-
16dd
8cc
16b-
16dd
=2
8cc
8b-
4r
2cc[
=3
8.cc]
16dd
16ee-
16cc
16a
16f
8e-
16d
16f
8e-
16d
16f
=4
8e-
8d
4r
8b-
8b-
8r
16cc
32b-
32cc
=5
8dd
8cc
8b-
16cc
32b-
32cc
8dd
8cc
4r
=6
8cc
8cc
8r
16dd
32cc
32dd
8ee-
8dd
8cc
16dd
32cc
32dd
=7
8ee-
8dd
4r
8ff
8ff
8gg
8gg
=8
4.ee-
8dd
8cc
8cc
8f
8f
=9
8d
4.r
8ff
8ff
8bb-
8bb-
=10
4aa
16.gg
32ff
16.ee-
32dd
8cc
8cc
8f
8f
=11
8d
8r
8cc
8cc
8dd
8r
8f
8f
=12
8d
8r
8aa
8aa
8bb-
4.r
=13
2r
2ff#[
=14
16ff#]
16gg
16aa
16bb-
8ccc
16bb-
16aa
16gg
16ff#
16aa
16ee-
16dd
16cc
16b-
16a
=15
16g
16b-
16dd
16gg
8bb-
8r
16e
16cc
16gg
16aa
8bb-
8r
=16
16f
16cc
16ff
16gg
8aa
8r
8gg
8gg
8ddd
8ddd
=17
4ff
8ee
8ccc
2ccc[
=18
16ccc]
16ddd-
16ddd
16eee-
16eee
16fff
16eee
16ddd
2ccc[
=19
16ccc]
16ddd-
16ddd
16eee-
16eee
16fff
16eee
16fff
2ddd[
=20
16ddd]
16ccc
16bb
16ccc
16ccc
16bb-
16aa
16bb-
2aa[
=21
4aa]
8gg
8ff
4ee
8ee
8ee
=22
8ff
8ff
8bb-
16aa
16bb-
8aa
8aa
8ee
8ee
=23
8ff
8ff
8bb-
16aa
16bb-
8aa
8aa
8ddd
8ddd
=24
2ddd
2ddd-
=25
8ccc
16eee
16fff
16ccc#
16ddd
24ff#
24gg
24bb-
4cc
4gg
=26
4ff
8g
8g
8a
8a
8b-
16a
16b-
=27
8a
8a
8ee
8ee
8ff
8ff
8gg
16ff
16gg
=28
8aa
8aa
8bb-
8bb-
16aa
16ff
16ee
16gg
16ff
16cc
16dd
16b-
=29
16a
16cc
16b-
16g
16a
16f
16e
16g
16aa
16ff
16ee
16gg
16ff
16cc
16dd
16b-
=30
16a
16cc
16b-
16g
16a
16f
16g
16e
16f
16g
16a
16g
16b-
16a
16cc
16b-
=31
16dd
16cc
16ee-
16dd
16ff
16ee-
16gg
16ff
2ff[
=32
16ff]
16gg
16ff
16gg
16aa-
16bb-
16ccc
16bb-
8aa-
16gg
16bb-
8aa-
16gg
16bb-
=33
8aa-
8gg
4r
2ff#[
=34
16ff#]
16gg
16aa
16bb-
8ccc
16bb-
16aa
16gg
16ff#
16aa
16ee-
16dd
16cc
16b-
16a
=35
16g
16b-
16dd
16gg
8bb-
8r
16aa
16gg
16aa
16bb-
8ccc
8r
=36
16bb-
16aa
16bb-
16ccc
16ddd
16bb-
16gg
16bb-
16dd
16gg
16b-
16dd
16g
16b-
16dd
16gg
=37
16aa
16gg
16aa
16bb-
16ccc
16aa
16ff#
16aa
16dd
16ff#
16a
16dd
16f#
16a
16dd
16ff#
=38
16gg
16ff#
16gg
16aa
16bb-
16gg
16dd
16gg
16b-
16dd
16g
16b-
16d
16g
16b-
16dd
=39
16gg
16ff
16gg
16aa-
16bb-
16gg
16ee-
16gg
16b-
16ee-
16g
16b-
16e-
16g
16b-
16ee-
=40
16ff
16ee
16ff
16gg
16aa-
16ff
16dd
16ff
16b
16dd
16f
16a-
16g
16f
16e-
16d
=41
16ee-
16dd
16ee-
16ff
16gg
16ee-
16cc
16ee-
16g
16cc
16e-
16g
16c
16e-
16g
16cc
=42
16ee
16dd
16ee
16ff
16gg
16ee
16cc
16ee
16g
16cc
16e
16g
16c
16e
16g
16cc
=43
16ee
16dd
16ee
16ff
16gg
16ee
16cc#
16ee
16a
16cc#
16e
16a
16c#
16e
16a
16cc#
=44
16ff
16ee
16ff
16gg
16aa
16ff
16dd
16ff
16a
16dd
16f
16a
16d
16f
16a
16dd
=45
16ff#
16ee
16ff#
16gg
16aa
16ff#
16dd
16ff#
16a
16dd
16f#
16a
16d
16f#
16a
16dd
=46
16gg
16ff#
16gg
16aa
16bb-
16gg
16dd
16gg
16b-
16dd
16g
16b-
16d
16g
16b-
16dd
=47
16d
16f#
16a
16dd
16ff#
16aa
16ccc#
16ddd
8dd
8ddd
8dd
8ddd
=48
4dd
4r
2b-[
=49
8.b-]
32cc
32dd
16ee-
16b-
16a-
16g
8f
16e-
16g
8f
16e-
16g
=50
8f
8e-
4r
2gg[
=51
16gg]
16bb
16ccc
16bb
16ccc
16bb-
16aa
16gg
2ff[
=52
8.ff]
32gg
32aa
16bb-
16ff
16ee-
16dd
8cc
16b-
16dd
8cc
16b-
16dd
=53
8cc
8b-
4r
2cc[
=54
8.cc]
16dd
16ee-
16cc
16a
16f
8e-
16d
16f
8e-
16d
16f
=55
8e-
8d
4r
8b-
8b-
8r
16cc
32b-
32cc
=56
8dd
16cc
32b-
32cc
8b-
8cc
8dd
8cc
4r
=57
8cc
8cc
8r
16dd
32cc
32dd
8ee-
16dd
32cc
32dd
8cc
8dd
=58
8ee-
8dd
4r
8ff
8ff
8gg
8gg
=59
4.ee-
8dd
8cc
8cc
8f
8f
=60
8d
4.r
8ff
8ff
8bb-
8bb-
=61
4aa
16.gg
32ff
16.ee-
32dd
8cc
8cc
8f
8f
=62
8d
8r
8cc
8cc
8dd
8r
8f
8f
=63
8d
8r
8ff
8ff
8aa-
4.r
=64
2bb-[
16bb-]
16ccc-
16ccc
16ddd-
16ddd
16eee-
16ddd
16ccc
=65
2bb-[
16bb-]
16ccc-
16ccc
16ddd-
16ddd
16eee-
16ddd
16eee-
=66
2eee-
16ddd
16bb-
16eee-
16ccc
16fff
16ddd
16eee-
16ccc
=67
4.bb-
8ee
2ff[
=68
16ff]
16gg-
16gg
16aa-
16aa
16bb-
16aa
16gg
2ff[
=69
16ff]
16gg-
16gg
16aa-
16aa
16bb-
16aa
16bb-
2ff
=70
2bb-
16ff#
16gg
16aa
16bb-
16aa
16gg
16ff
16ee-
=71
16dd
16ee-
16ff
16ee-
16gg
16ff
16ee-
16dd
8cc
8cc
8r
16dd
32cc
32dd
=72
8ee-
8ee-
8r
8cc
8dd
8dd
8r
8ee-
=73
8ff
8ff
8r
8dd
8ee-
8ee-
8r
8ff
=74
8gg
8gg
8r
8aa
8bb-
8bb-
8r
8ee
=75
8ff
8ff
8r
8ee
8ff
8ff
8r
8ee
=76
8ff
8r
8ff
8r
2ff[
=77
8.ff]
32gg
32aa
16bb-
16ff
16ee-
16dd
8cc
16b-
16dd
8cc
16b-
16dd
=78
8cc
8b-
4r
2aa-[
=79
16aa-]
16gg
16ff#
16gg
16ff
16dd
16ee-
16cc
4b-
4cc
=80
4b-
8cc
8cc
8dd
8dd
8ee-
16dd
16ee-
=81
8dd
8dd
8aa
8aa
8bb-
8bb-
8ccc
16bb-
16ccc
=82
8ddd
8ddd
8eee-
8eee-
16ddd
16bb-
16aa
16ccc
16bb-
16ff
16gg
16ee-
=83
16dd
16ff
16ee-
16cc
16dd
16b-
16a
16cc
16ddd
16bb-
16aa
16ccc
16bb-
16ff
16gg
16ee-
=84
16dd
16ff
16ee-
16cc
16dd
16b-
16a
16cc
16b-
16f
16d
16f
16b-
16a
16cc
16b-
=85
16dd
16cc
16ee-
16dd
16ff
16ee-
16gg
16ff
2ff[
=86
8.ff]
32gg
32aa
16bb-
16aa
16gg
16ff#
8gg
8r
8eee-
8eee-
=87
8ddd
8r
8aa
8aa
8bb-
8r
8f
8f
=88
8d
8r
8cc
8cc
8dd
8r
8f
8f
=89
8d
8r
8aa
8aa
4bb-
4r
==
*-
